src/Assets/Icons/mongoose.svg

<?xml version="1.0" encoding="UTF-8"?>
<svg xmlns="http://www.w3.org/2000/svg" xmlns:xlink="http://www.w3.org/1999/xlink" width="54pt" height="54pt" viewBox="0 0 54 54" version="1.1">
<g id="surface1">
<path d="M 1060.040509 1280.960648 L 1025.028935 1274.016204 L 1070.023148 1252.025463 C 1095.052083 1240.017361 1106.047454 1232.928241 1095.052083 1235.966435 C 1036.024306 1255.931713 930.989583 1279.947917 903.06713 1279.947917 C 856.047454 1279.947917 836.950231 1255.931713 845.052083 1206.018519 C 858.940972 1119.936343 917.96875 1033.998843 1004.050926 978.009259 C 1051.938657 946.03588 1046.006944 941.984954 991.030093 969.039352 C 928.96412 1001.012731 856.047454 1088.975694 835.9375 1155.960648 C 825.954861 1188.946759 815.972222 1221.064815 813.946759 1229.021991 C 811.053241 1240.017361 793.981481 1241.030093 732.060185 1234.953704 C 529.947917 1216.001157 336.950231 1132.957176 121.961806 972.945602 C 82.03125 942.997685 51.070602 915.943287 53.96412 913.049769 C 55.989583 910.011574 73.929398 913.049769 92.013889 918.981481 C 265.046296 974.971065 479.021991 935.040509 575.954861 827.980324 C 594.039352 807.002315 611.979167 789.930556 615.017361 789.930556 C 618.055556 789.930556 619.936343 819.010417 619.936343 855.034722 L 619.936343 919.994213 L 778.06713 919.994213 L 814.959491 854.021991 L 853.009259 787.037037 L 889.033565 854.021991 L 925.05787 919.994213 L 1089.988426 919.994213 L 1089.988426 789.930556 C 1089.988426 718.02662 1094.039352 660.011574 1098.958333 660.011574 C 1104.021991 660.011574 1119.068287 673.032407 1131.944444 688.946759 C 1176.070602 741.030093 1200.954861 750 1321.03588 759.982639 C 1383.969907 765.046296 1437.934028 769.965278 1441.984954 769.965278 C 1446.03588 769.965278 1445.023148 780.960648 1437.934028 794.994213 C 1426.070602 823.061343 1439.959491 849.971065 1468.02662 849.971065 C 1489.00463 849.971065 1793.981481 916.956019 1856.047454 935.040509 C 1914.0625 951.967593 1929.976852 967.013889 1952.980324 1027.054398 C 1968.02662 1064.959491 1968.02662 1071.03588 1953.993056 1085.069444 C 1932.002315 1106.047454 1923.032407 1104.021991 1911.024306 1073.061343 L 1900.028935 1044.994213 L 1904.947917 1075.954861 C 1910.011574 1104.021991 1907.986111 1107.060185 1857.928241 1128.038194 C 1793.981481 1153.935185 1596.93287 1212.962963 1504.050926 1234.953704 C 1351.996528 1269.965278 1123.987269 1293.981481 1060.040509 1280.960648 Z M 1038.049769 1153.935185 C 1073.061343 1127.025463 1078.993056 1117.042824 1053.96412 1127.025463 C 1039.930556 1131.944444 1039.0625 1130.063657 1050.05787 1110.966435 C 1061.053241 1089.988426 1060.040509 1088.975694 1039.930556 1099.971065 C 1010.99537 1116.030093 1005.063657 1107.060185 1029.947917 1085.069444 C 1050.05787 1065.972222 1058.015046 1043.981481 1039.930556 1054.976852 C 1026.041667 1063.946759 1027.054398 1047.019676 1041.956019 1031.97338 C 1048.032407 1026.041667 1051.070602 1017.939815 1049.045139 1015.046296 C 1046.006944 1013.020833 1020.978009 1030.960648 992.042824 1055.989583 C 935.040509 1106.047454 884.982639 1182.002315 893.952546 1205.005787 C 899.016204 1218.02662 906.97338 1217.013889 951.967593 1198.929398 C 981.047454 1187.934028 1019.965278 1166.956019 1038.049769 1153.935185 Z M 1524.016204 1132.957176 C 1611.979167 1112.991898 1591.001157 1096.064815 1484.953704 1101.996528 C 1426.938657 1105.034722 1405.960648 1109.953704 1388.020833 1126.012731 C 1375 1138.020833 1357.928241 1150.028935 1349.971065 1153.935185 C 1323.061343 1164.930556 1453.993056 1150.028935 1524.016204 1132.957176 Z M 1500 923.032407 C 1423.032407 895.978009 1380.063657 862.991898 1380.063657 832.03125 C 1380.063657 811.053241 1378.038194 808.015046 1369.936343 820.023148 C 1354.021991 845.052083 1358.940972 869.068287 1383.969907 884.982639 C 1412.037037 903.935185 1508.969907 938.946759 1529.947917 938.946759 C 1538.049769 938.946759 1525.028935 930.989583 1500 923.032407 Z M 1500 923.032407 " transform="matrix(0.027,0,0,-0.027,0,54)"/>
<path d="M 779.947917 642.071759 L 779.947917 539.930556 L 929.976852 539.930556 L 929.976852 744.936343 L 894.965278 691.984954 C 875 664.0625 857.060185 640.046296 855.034722 640.046296 C 853.009259 640.046296 835.069444 664.0625 814.959491 691.984954 L 779.947917 744.936343 Z M 779.947917 642.071759 " transform="matrix(0.027,0,0,-0.027,0,54)"/>
</g>
</svg>

<?xml version="1.0" standalone="no"?>
<!DOCTYPE svg PUBLIC "-//W3C//DTD SVG 20010904//EN"
 "http://www.w3.org/TR/2001/REC-SVG-20010904/DTD/svg10.dtd">
<svg version="1.0" xmlns="http://www.w3.org/2000/svg"
 width="200.000000pt" height="200.000000pt" viewBox="0 0 200.000000 200.000000"
 preserveAspectRatio="xMidYMid meet">

<g transform="translate(0.000000,200.000000) scale(0.100000,-0.100000)"
fill="#000000" stroke="none">
<path d="M1060 1281 l-35 -7 45 -22 c25 -12 36 -19 25 -16 -59 20 -164 44
-192 44 -47 0 -66 -24 -58 -74 14 -86 73 -172 159 -228 48 -32 42 -36 -13 -9
-62 32 -135 120 -155 187 -10 33 -20 65 -22 73 -3 11 -20 12 -82 6 -202 -19
-395 -102 -610 -262 -40 -30 -71 -57 -68 -60 2 -3 20 0 38 6 173 56 387 16
484 -91 18 -21 36 -38 39 -38 3 0 5 29 5 65 l0 65 79 0 79 0 37 -66 38 -67 36
67 36 66 83 0 82 0 0 -130 c0 -72 4 -130 9 -130 5 0 20 13 33 29 44 52 69 61
189 71 63 5 117 10 121 10 4 0 3 11 -4 25 -12 28 2 55 30 55 21 0 326 67 388
85 58 17 74 32 97 92 15 38 15 44 1 58 -22 21 -31 19 -43 -12 l-11 -28 5 31
c5 28 3 31 -47 52 -64 26 -261 85 -354 107 -152 35 -380 59 -444 46z m-22
-127 c35 -27 41 -37 16 -27 -14 5 -15 3 -4 -16 11 -21 10 -22 -10 -11 -29 16
-35 7 -10 -15 20 -19 28 -41 10 -30 -14 9 -13 -8 2 -23 6 -6 9 -14 7 -17 -3
-2 -28 16 -57 41 -57 50 -107 126 -98 149 5 13 13 12 58 -6 29 -11 68 -32 86
-45z m486 -21 c88 -20 67 -37 -39 -31 -58 3 -79 8 -97 24 -13 12 -30 24 -38
28 -27 11 104 -4 174 -21z m-24 -210 c-77 -27 -120 -60 -120 -91 0 -21 -2 -24
-10 -12 -16 25 -11 49 14 65 28 19 125 54 146 54 8 0 -5 -8 -30 -16z"/>
<path d="M780 642 l0 -102 75 0 75 0 0 102 0 103 -35 -53 c-20 -28 -38 -52
-40 -52 -2 0 -20 24 -40 52 l-35 53 0 -103z"/>
</g>
</svg>
